icons/volume-down.svg

<svg width="24" height="24" viewBox="0 0 24 24" fill="none" xmlns="http://www.w3.org/2000/svg">
<path fill-rule="evenodd" clip-rule="evenodd" d="M11.3827 3.07615C11.7564 3.23093 12 3.59557 12 4.00003V20C12 20.4045 11.7564 20.7691 11.3827 20.9239C11.009 21.0787 10.5789 20.9931 10.2929 20.7071L5.58579 16H2C1.44772 16 1 15.5523 1 15V9.00003C1 8.44774 1.44772 8.00003 2 8.00003H5.58579L10.2929 3.29292C10.5789 3.00692 11.009 2.92137 11.3827 3.07615ZM10 6.41424L6.70711 9.70714C6.51957 9.89467 6.26522 10 6 10H3V14H6C6.26522 14 6.51957 14.1054 6.70711 14.2929L10 17.5858V6.41424ZM14.2193 7.37509C14.5645 6.94393 15.1938 6.87421 15.6249 7.21936C17.0607 8.36868 18 10.0719 18 12C18 13.9282 17.0607 15.6314 15.6249 16.7807C15.1938 17.1258 14.5645 17.0561 14.2193 16.625C13.8742 16.1938 13.9439 15.5645 14.3751 15.2194C15.3943 14.4034 16 13.2506 16 12C16 10.7495 15.3943 9.59665 14.3751 8.7807C13.9439 8.43555 13.8742 7.80624 14.2193 7.37509Z" fill="black"/>
</svg>

<svg
  width="24"
  height="24"
  viewBox="0 0 24 24"
  xmlns="http://www.w3.org/2000/svg"
>
  <path
    fill-rule="evenodd"
    clip-rule="evenodd"
    d="M11.383 3.076A1 1 0 0 1 12 4v16a1 1 0 0 1-1.707.707L5.586 16H2a1 1 0 0 1-1-1V9a1 1 0 0 1 1-1h3.586l4.707-4.707a1 1 0 0 1 1.09-.217zM10 6.414L6.707 9.707A1 1 0 0 1 6 10H3v4h3a1 1 0 0 1 .707.293L10 17.586V6.414zm4.22.961a1 1 0 0 1 1.405-.156C17.06 8.37 18 10.072 18 12c0 1.928-.94 3.631-2.375 4.78a1 1 0 0 1-1.25-1.56C15.395 14.402 16 13.25 16 12c0-1.25-.606-2.403-1.625-3.22a1 1 0 0 1-.156-1.405z"
  />
</svg>
